!!!COM: Morley, Thomas
!!!OTL: De Profundis Clamavi
!!!YOR: from 'Collected Motets' edited by H.K. Andrews & Thurston Dart, pp.77-86
!!!YOO: Stainer & Bell (London)
!!!YOY: 1959
**kern	**kern	**kern	**kern	**kern	**kern
*ICvox	*ICvox	*ICvox	*ICvox	*ICvox	*ICvox
! Bassus	! Tenor	! Altus	! Altus	! Cantus	! Cantus
*k[f#c#]	*k[f#c#]	*k[f#c#]	*k[f#c#]	*k[f#c#]	*k[f#c#]
*b:	*b:	*b:	*b:	*b:	*b:
*M4/4	*M4/4	*M4/4	*M4/4	*M4/4	*M4/4
=1	=1	=1	=1	=1	=1
1r	[2F#	1r	2r	1r	1r
.	4F#]	.	[2f#	.	.
.	4F#	.	.	.	.
=2	=2	=2	=2	=2	=2
[2F#	2A#	1r	4f#]	1r	1r
.	.	.	4f#	.	.
4F#]	4c#	.	2A#	.	.
4F#	4c#	.	.	.	.
=3	=3	=3	=3	=3	=3
2AA#	2f#	2r	4c#	1r	1r
.	.	.	4c#	.	.
4BB	4f#	[2B	4d	.	.
4BB	8f#	.	[4d	.	.
.	[{8f#	.	.	.	.
=4	=4	=4	=4	=4	=4
{2G	8f#]	4B]	8d]	1r	2r
.	16e	.	8c#	.	.
.	16d	.	.	.	.
.	4e}	4B	4B	.	.
4.F#	2f#	2A#	2c#	.	[2ff#
8E	.	.	.	.	.
=5	=5	=5	=5	=5	=5
8D	2r	4B	2F#	[2f#	4ff#]
8C#	.	.	.	.	.
4BB}	.	4d	.	.	4ff#
2F#	4r	2c#	2r	4f#]	2a#
.	[4F#	.	.	4f#	.
=6	=6	=6	=6	=6	=6
2r	4F#]	4c#	1r	2a#	4cc#
.	4F#	{4.f#	.	.	4cc#
4r	4.B	.	.	4b	{4.dd
.	.	8e}	.	.	.
[4BB	.	[4d	.	4b	.
.	{8A	.	.	.	8cc#
=7	=7	=7	=7	=7	=7
4BB]	4G	2d]	4r	4.dd	4.b
4BB	4F#	.	2B	.	.
.	.	.	.	8cc#	8a
4.E	4.G	2e	.	2b	8g
.	.	.	.	.	8a
.	.	.	4B	.	[4b
{8D	8F#	.	.	.	.
=8	=8	=8	=8	=8	=8
2C#}	2E}	1r	2e	2cc#	4b]
.	.	.	.	.	4a#
2BB	4F#	.	{4.d	[2f#	4.b
.	[4B	.	.	.	.
.	.	.	8c#	.	8cc#
=9	=9	=9	=9	=9	=9
4r	4B]	4r	8B	2f#]	2dd}
.	.	.	8c#	.	.
2B	4B	2f#	8d	.	.
.	.	.	8B}	.	.
.	4F#	.	2c#	2r	2cc#
4A	[4f#	4f#	.	.	.
=10	=10	=10	=10	=10	=10
4G	4f#]	2.b	{4d	1r	2r
4G	4e	.	4B}	.	.
4.F#	4d	.	2f#	.	4r
.	4c#	4a#	.	.	[4f#
8E	.	.	.	.	.
=11	=11	=11	=11	=11	=11
4D#	2B	4b	2F#	4r	4f#]
4D#	.	2B	.	2b	4f#
{4.E	2e	.	4r	.	2g
.	.	[4e	[4B	4b	.
8Dn	.	.	.	.	.
=12	=12	=12	=12	=12	=12
2C#}	2r	4e]	4B]	2ee	{4.e
.	.	4c#	4A#	.	.
.	.	.	.	.	8f#
4BB	4r	2d	8B	{4dd	4g
.	.	.	{8c#	.	.
4B	[4B	.	8d	4b}	4f#
.	.	.	8B	.	.
=13	=13	=13	=13	=13	=13
4.F#	4B]	4c#	4c#	4cc#	2f#
.	4A#	4c#	4F#}	{4.ff#	.
8E	.	.	.	.	.
{8D	{8B	{8d	2F#	.	4.b
8C#}	8c#}	8e}	.	8ee	.
4BB	4d	4f#	.	8dd	.
.	.	.	.	8cc#	{8a
=14	=14	=14	=14	=14	=14
{2E	4e	8r	1r	4b}	8g
.	.	8B	.	.	8f#
.	2e	4e	.	4cc#	4g}
[2F#	.	4c#	.	4a#	4f#
.	4d	{8d	.	[4b	[4f#
.	.	8B}	.	.	.
=15	=15	=15	=15	=15	=15
2F#}]	2c#	4c#	2r	4b]	8f#]
.	.	.	.	.	{8e
.	.	2f#	.	4a#	4c#
2BB	2B	.	4r	4.b	4d
.	.	4e	[4B	.	4g}
.	.	.	.	{8cc#	.
=16	=16	=16	=16	=16	=16
4r	4r	{4d	4B]	4dd	2f#
2F#	2A	8a	4c#	8cc#	.
.	.	8g	.	8b	.
.	.	4f#	4d#	4a	2r
4G#	4B	8e	4e	[4ee	.
.	.	8d}	.	.	.
=17	=17	=17	=17	=17	=17
4A#	4c#	4c#	4.f#	8ee]	4r
.	.	.	.	8cc#	.
4A#	4c#	4F#	.	4.ff#	2f#
.	.	.	8e	.	.
4B	2d	2r	{8d	.	.
.	.	.	8c#}	8ee	.
4B	.	.	4B	8dd	4g#
.	.	.	.	8b}	.
=18	=18	=18	=18	=18	=18
4F#	4c#	2r	{4f#	2cc#	4a#
4F#	4.f#	.	4c#	.	4a#
[2BB	.	4r	4d	2r	4.b
.	8e	.	.	.	.
.	{8d	[4f#	4B}	.	.
.	8c#	.	.	.	8cc#
=19	=19	=19	=19	=19	=19
2BB]	8B	4f#]	2F#	2.ff#	4dd
.	8c#	.	.	.	.
.	8d	4g#	.	.	4dd
.	8B	.	.	.	.
2F#	2c#	4a#	2r	.	2cc#
.	.	4a#	.	{4ee	.
=20	=20	=20	=20	=20	=20
2r	4.B	4b	4r	4.dd	2f#
.	.	4B	2f#	.	.
.	8A	.	.	8cc#}	.
4r	2G}	2B	.	2b	2r
4B	.	.	4e	.	.
=21	=21	=21	=21	=21	=21
4B	2F#	2f#	4d	4r	4r
4A	.	.	4c#	4f#	2ff#
4G	2r	{4.B	4d	[2b	.
4G	.	.	4e	.	4ee
.	.	8c#	.	.	.
=22	=22	=22	=22	=22	=22
{4.F#	4r	4d	4f#	4b]	4dd
.	2f#	4A	4f#	4a	4cc#
8E	.	.	.	.	.
4D#	.	4F#	2B	4a	[2b
4E}	4e	8G	.	4g	.
.	.	8E}	.	.	.
=23	=23	=23	=23	=23	=23
2BB	4e	4F#	2B	{2f#	4b]
.	4d	4.B	.	.	4b
2r	2c#	.	2r	4.e	[{2ee
.	.	8B	.	.	.
.	.	4A#	.	.	.
.	.	.	.	8f#	.
=24	=24	=24	=24	=24	=24
1r	{8.B	2B	1r	4g}	4ee]
.	16c#}	.	.	.	.
.	{8d	.	.	2f#	4dd
.	8e	.	.	.	.
.	4f#}	4F#	.	.	4cc#}
.	4F#	4A	.	[{4f#	4dd
=25	=25	=25	=25	=25	=25
2r	2G	2B	2r	4f#]	2b
.	.	.	.	4e}	.
4r	4F#	{4c#	4r	4f#	4a#
[4BB	[4F#	8d	[4B	[4f#	[4dd
.	.	8e}	.	.	.
=26	=26	=26	=26	=26	=26
8BB]	8F#]	{4.f#	8B]	8f#]	8dd]
8BB	8F#	.	8B	8f#	8dd
4AA#	4F#	.	4c#	4f#	4cc#
.	.	8e	.	.	.
2BB	2F#	8d	2d	2f#	2b
.	.	8c#	.	.	.
.	.	4B}	.	.	.
=27	=27	=27	=27	=27	=27
4FF#	4F#	4c#	4.c#	4f#	4a#
4F#	4A	4r	.	4f#	4cc#
.	.	.	8d	.	.
4E	4B	2r	4e	4g	8cc#
.	.	.	.	.	8b
4G	4e	.	4B	4e	[{4b
=28	=28	=28	=28	=28	=28
2F#	4c#	4r	2c#	{4.f#	4b]
.	2F#	2f#	.	.	4a#}
.	.	.	.	8e}	.
[2BB	.	.	2B	2d#	2b
.	[4B	4f#	.	.	.
=29	=29	=29	=29	=29	=29
2BB]	4B]	4.d	2r	1r	4r
.	4B	.	.	.	2b
.	.	8e	.	.	.
2r	4.d	4.f#	4r	.	.
.	.	.	[4f#	.	4a
.	8c#	8e	.	.	.
=30	=30	=30	=30	=30	=30
2r	2B	2d	4f#]	1r	4.dd
.	.	.	4g#	.	.
.	.	.	.	.	8dd
4r	4A	4e	4.a	.	4cc#
[4F#	[4c#	[4f#	.	.	4cc#
.	.	.	8a	.	.
=31	=31	=31	=31	=31	=31
4F#]	8c#]	4f#]	2f#	4r	8a#
.	8c#	.	.	.	8a#
4D	4dd	{4B	.	2b	4f#
4.F#	2c#	4c#	4r	.	2f#
.	.	4F#}	4c#	4a	.
8F#	.	.	.	.	.
=32	=32	=32	=32	=32	=32
4BB	2B	2F#	4.f#	4.dd	4f#
4BB	.	.	.	.	4b
.	.	.	8g#	8dd	.
8F#	4r	2r	4a	4cc#	4a
8F#	.	.	.	.	.
4G#	4e	.	{4g	4b	[4ee
=33	=33	=33	=33	=33	=33
{4A#	4c#	2r	2f#}	8cc#	8ee]
.	.	.	.	8cc#	8ee
4B	4d	.	.	2b	2dd
4G#	4B	4r	2e	.	.
4An	{8c#	[4e	.	4a	[4cc#
.	8A	.	.	.	.
=34	=34	=34	=34	=34	=34
[1E	4B}	4e]	4r	2g#	4cc#]
.	4E	4B	4e	.	4.b
.	8G#	4B	8e	4r	.
.	8G#	.	8e	.	8a
.	4A	4c#	8e	[4ee	[4a
.	.	.	8e	.	.
=35	=35	=35	=35	=35	=35
2E}]	4B	2B	2e	4ee]	4a]
.	4E	.	.	4b	{4g#
2AA	4r	4A	4e	4cc#	8.a
.	.	.	.	.	16b
.	[4A	[4a	[4e	4a	8cc#
.	.	.	.	.	8dd
=36	=36	=36	=36	=36	=36
1r	4A]	4a]	4e]	2ee	4cc#
.	4E	4g	4e	.	4b}
.	4F#	4.f#	4.A	4dd	[2a
.	4D	.	.	8dd	.
.	.	8f#	8B	8dd	.
=37	=37	=37	=37	=37	=37
2r	2A	2e	4c#	4.cc#	4a]
.	.	.	{4A	.	{4.a
.	.	.	.	8cc#	.
4r	4E	[2e	4B	{4.b	.
.	.	.	.	.	8g
[4E	8E	.	4e	.	4e}
.	8F#	.	.	8a}	.
=38	=38	=38	=38	=38	=38
4E]	8G	4e]	4B}	4g	2b
.	8E	.	.	.	.
4BB	{8F#	{4d	4.b	4f#	.
.	8G#}	.	.	.	.
4C#	8.A	2c#	.	2e	4r
.	.	.	8a	.	.
.	{16B	.	.	.	.
4AA	8c#	.	[4a	.	[4ee
.	8A	.	.	.	.
=39	=39	=39	=39	=39	=39
2E	4B}	2B}	4a]	4r	4ee]
.	2E	.	4g#	4.ee	4b
4AA	.	2A	2a	.	4cc#
.	.	.	.	{8dd	.
[4A	4r	.	.	8cc#	4a
.	.	.	.	8b	.
=40	=40	=40	=40	=40	=40
4A]	1r	2r	4e	4cc#	2.ee
4E	.	.	{4.g	2b	.
8G	.	4r	.	.	.
8G	.	.	8e	.	.
4F#	.	4a	8f#	4a}	4dd
.	.	.	8F#	.	.
=41	=41	=41	=41	=41	=41
4.E	2r	4e	8G#	2ee	8cc#
.	.	.	8A	.	8cc#
.	.	2g	8B	.	2b
{16D	.	.	8c#	.	.
16C#	.	.	.	.	.
8BB	[2B	.	8d	2r	.
8C#	.	.	8e	.	.
4D#	.	4f#	4f#}	.	4a
=42	=42	=42	=42	=42	=42
4E	4B]	4.e	4B	1r	4g#
4C#	4E	.	4r	.	{2a
.	.	8c#	.	.	.
[2BB	{4F#	{4d#	4r	.	.
.	8G#	[4e	[4b	.	4g#}
.	8E}	.	.	.	.
=43	=43	=43	=43	=43	=43
2BB}]	4F#	4e}]	4b]	2r	2f#
.	{4.B	4d#	4f#	.	.
[2E	.	4e	4g#	4r	[2e
.	8A	.	.	.	.
.	[4A	4c#	4a	[4ee	.
=44	=44	=44	=44	=44	=44
2E]	4A}]	2B	2b	4ee]	2e]
.	{4G#	.	.	4b	.
4r	4.A	8A	4e	4cc#	2r
.	.	{8B	.	.	.
[4A	.	[4c#	[4a	4a	.
.	8B	.	.	.	.
=45	=45	=45	=45	=45	=45
4A]	4c#	8c#]	4a]	2ee	1r
.	.	8d	.	.	.
4E	8B	4e}	4g	.	.
.	8c#	.	.	.	.
4F#	4d}	4A	4.f#	4dd	.
4D	4A	[4a	.	4dd	.
.	.	.	8f#	.	.
=46	=46	=46	=46	=46	=46
2A	4r	4a]	{4e	4cc#	1r
.	2e	4e	4c#	4.ee	.
4E	.	4g	4B}	.	.
.	.	.	.	8ee	.
4r	4B	4f#	[{4b	4dd	.
=47	=47	=47	=47	=47	=47
1r	4c#	2e	8b]	4cc#	4r
.	.	.	8a	.	.
.	4A	.	2a}	4cc#	2ee
.	{2e	4E	.	2b	.
.	.	[4e	4g#	.	4b
=48	=48	=48	=48	=48	=48
2r	4A	4e]	4a	1r	4cc#
.	4c#	4e	2A	.	4a
4r	2B}	8f#	.	.	[2dd
.	.	8f#	.	.	.
[4B	.	4d	{8G#	.	.
.	.	.	8F#	.	.
=49	=49	=49	=49	=49	=49
8B]	2E	4e	4G#	4r	4dd]
8A	.	.	.	.	.
4.A	.	4e	4A	2ee	{4cc#
.	4r	2e	4B}	.	4b}
8A	.	.	.	.	.
4G#	[4e	.	4E	4b	[4b
=50	=50	=50	=50	=50	=50
4A	4e]	1r	2r	4cc#	8b]
.	.	.	.	.	8a
4F#	4d	.	.	4a	{4.a
2E	8c#	.	4.e	4ee	.
.	8c#	.	.	.	16g
.	.	.	.	.	16f#}
.	4B	.	.	[{4ee	[{4e
.	.	.	{16d	.	.
.	.	.	16c#	.	.
=51	=51	=51	=51	=51	=51
4.E	4r	4.g	4B	8ee]	8e]
.	.	.	.	16dd	8f#
.	.	.	.	16cc#}	.
.	4.B	.	4E	8b	8g
{16D	.	{16f#	.	8cc#	8a}
16C#	.	16e	.	.	.
4.B	.	4.d	4F#	{8dd	{8b
.	{16A	.	.	8ee	8cc#}
.	16G	.	.	.	.
.	[4F#	.	4D	[4ff#	[4dd
8C#	.	8e	.	.	.
=52	=52	=52	=52	=52	=52
8D	8F#]	4f#	2d}	4ff#}]	8dd]
8E	8G	.	.	.	{16cc#
.	.	.	.	.	16b
8F#	2A	4d}	.	4ff#	8a
8G#	.	.	.	.	8b
4.A	.	2a	4c#	4ee	4cc#
.	4F#}	.	{4f#	[4dd	4a}
8F#	.	.	.	.	.
=53	=53	=53	=53	=53	=53
4G#	4E	4r	4B	4dd]	4b
4A	4r	{4e	4c#	4cc#	2a
[2B	2r	4d#	4f#	[2b	.
.	.	4e}	[4e	.	4g
=54	=54	=54	=54	=54	=54
2B}]	4r	2f#	4e]	2b]	4f#
.	2B	.	4d#	.	4.b
2E	.	4g#	4e}	4r	.
.	.	.	.	.	{8a
.	4B	4r	[4E	[4b	8g#
.	.	.	.	.	8f#}
=55	=55	=55	=55	=55	=55
4r	4G#	2r	4E]	4b]	2e
2E	4G#	.	2e	4b	.
.	4.B	4r	.	4g#	2r
4E	.	[4e	4B	4g#	.
.	8B	.	.	.	.
=56	=56	=56	=56	=56	=56
4C#	4E	4e]	2c#	4.a#	2r
4C#	4E	4e	.	.	.
.	.	.	.	8a#	.
4.D#	4B	2f#	4F#	4.b	4r
.	4B	.	8f#	.	[4b
8D#	.	.	8f#	8an	.
=57	=57	=57	=57	=57	=57
4E	2r	4B	2e	{8g	4b]
.	.	.	.	8f#	.
4E	.	4.b	.	4g}	4b
2BB	4r	.	2r	2f#	4dd#
.	.	{8a	.	.	.
.	[4B	4f#	.	.	4dd#
=58	=58	=58	=58	=58	=58
2E	4B]	8g#	4r	{8.e	2.ee
.	.	8a	.	.	.
.	.	.	.	16f#}	.
.	4B	2b}	4e	{8g#	.
.	.	.	.	8a	.
2r	4G#	.	4e	2b}	.
.	4G#	4B	[4b	.	4dd
=59	=59	=59	=59	=59	=59
2r	4.A	{4c#	8b]	4e	4cc#
.	.	.	8a	.	.
.	.	4f#}	2a	4r	4cc#
.	8A	.	.	.	.
[2BB	4B	{4d#	.	2r	2b
.	4E	[4e	4g	.	.
=60	=60	=60	=60	=60	=60
4BB]	2F#	4e]	4f#	4r	2b
4BB	.	4d#}	4B	2b	.
2GG#	[2E	4e	2B	.	4r
.	.	[4e	.	4b	[4ee
=61	=61	=61	=61	=61	=61
4AA	2E]	4e]	2A	4cc#	4ee]
4C#	.	4e	.	4g#	4ee
2F#	2r	4.f#	4r	4a#	4cc#
.	.	.	[4f#	4a#	4cc#
.	.	8e	.	.	.
=62	=62	=62	=62	=62	=62
4BB	1r	{2d	4f#]	{4.b	4dd
2B	.	.	4f#	.	{4b
.	.	.	.	8a}	.
.	.	4B	4d	{8g	4dd
.	.	.	.	8f#}	.
{4A	.	4c#}	4f#	[{4f#	[4cc#
=63	=63	=63	=63	=63	=63
2G}	2r	4d	4B	4f#]	8cc#]
.	.	.	.	.	8b
.	.	4B	4B	4e}	2b
2F#	4r	4r	4c#	2f#	.
.	4c#	[4f#	4c#	.	4a#}
=64	=64	=64	=64	=64	=64
1r	4d	4f#]	2B	2r	4b
.	8e	4f#	.	.	4b
.	8d	.	.	.	.
.	4c#	4.f#	2F#	4r	4a#
.	4A#	.	.	4cc#	4f#
.	.	8e	.	.	.
=65	=65	=65	=65	=65	=65
2r	2B	4d	1r	4dd	2f#
.	.	{8c#	.	8ee	.
.	.	8B	.	8dd	.
4r	4F#	8A	.	4cc#	2f#
.	.	8B	.	.	.
4F#	[{4f#	8c#	.	4a#	.
.	.	[8d	.	.	.
=66	=66	=66	=66	=66	=66
4G	8f#]	8d]	2r	2b	1r
.	16e	[8e	.	.	.
.	16d	.	.	.	.
8A	8c#	4e}]	.	.	.
8G	8B}	.	.	.	.
4F#	4c#	4f#	4r	4a#	.
4D#	4f#	4F#	4f#	[4b	.
=67	=67	=67	=67	=67	=67
2E	4e	2B	4g	2b]	4r
.	8f#	.	8a	.	4b
.	8e	.	8g	.	.
2BB	4d	2B	4f#	2b	4dd
.	8c#	.	4f#	.	8ee
.	8B	.	.	.	8dd
=68	=68	=68	=68	=68	=68
{2F#	4A#	4r	1f#	1r	4cc#
.	4F#	4c#	.	.	4a#
2BB	2f#	4d	.	.	2b
.	.	8e	.	.	.
.	.	8d	.	.	.
=69	=69	=69	=69	=69	=69
1F#}	4r	4c#	1f#	2r	2a#
.	4f#	4F#	.	.	.
.	4.c#	{4.A#	.	4r	2r
.	.	.	.	4ff#	.
.	8B	8B	.	.	.
=70	=70	=70	=70	=70	=70
1F#	4.A#	8c#	2r	4.cc#	4r
.	.	16d	.	.	.
.	.	16e	.	.	.
.	.	4f#}	.	.	4ff#
.	8B	.	.	8b	.
.	4c#	2f#	4r	4.a#	4.cc#
.	4F#	.	4f#	.	.
.	.	.	.	8b	8b
=71	=71	=71	=71	=71	=71
2r	2F#	4r	4.c#	4cc#	4.a#
.	.	4f#	.	2f#	.
.	.	.	8B	.	8b
4r	2F#	4.c#	4.A#	.	4cc#
4F#	.	.	.	4r	[4f#
.	.	8B	8B	.	.
=72	=72	=72	=72	=72	=72
4.FF#	1F#	4.A#	{4c#	4r	4f#]
.	.	.	4F#	4ff#	4r
8GG#	.	8B	.	.	.
4AA#	.	4c#	4f#	4.cc#	4r
4BB	.	[4F#	4d	.	4ff#
.	.	.	.	8b	.
=73	=73	=73	=73	=73	=73
1F#	4r	4F#]	4c#}	4.a#	4.cc#
.	4f#	4r	4F#	.	.
.	.	.	.	8b	8b
.	4.c#	2r	4r	4cc#	4.a#
.	.	.	4f#	[4f#	.
.	8B	.	.	.	8b
=74	=74	=74	=74	=74	=74
[1F#	4A#	4r	4.c#	4f#]	4cc#
.	4F#	4f#	.	4r	2f#
.	.	.	8B	.	.
.	2f#	4.c#	4A#	4r	.
.	.	.	4B	4ff#	4r
.	.	8B	.	.	.
=75	=75	=75	=75	=75	=75
2F#]	2f#	4.A#	4c#	4.cc#	4r
.	.	.	4F#	.	4ff#
.	.	8B	.	8b	.
{2F#	4r	4c#	2f#	4.a#	4.cc#
.	[4F#	4d	.	.	.
.	.	.	.	8b	8b
=76	=76	=76	=76	=76	=76
*M3/2	*M3/2	*M3/2	*M3/2	*M3/2	*M3/2
[2F#	4F#]	4c#	4.f#	4cc#	4a#
.	4.f#	4B	.	4dd	4b
.	.	.	{16e	.	.
.	.	.	16d}	.	.
2F#_	.	1f#	4c#	4an	{4cc#
.	8e	.	.	.	.
.	8d	.	4d	4b	2b
.	8B	.	.	.	.
2F#}]	{4f#	.	2c#	2cc#	.
.	4F#}	.	.	.	4a#}
=77	=77	=77	=77	=77	=77
*M4/4	*M4/4	*M4/4	*M4/4	*M4/4	*M4/4
1BB;	1F#;	1f#;	1B;	1dd#;	1b;
==	==	==	==	==	==
*-	*-	*-	*-	*-	*-
!!!ENC: Mark Laxton
!!!EDD: Mark Laxton
!!!YEC: Mark Laxton, 1987
!!!EMD: Reference records added by D. Huron, 2001
!!!EEV: 1.1
